X: 24
T: Missa In feuers hitz / Kyrie
N: Derived from Mar1007a-Missa_In_feuers_hitz-Kyrie.krn
C: Johannes Martini
%%abc-version 2.0
%%abcx-abcm2ps-target-version 5.9.1 (29 Sep 2008)
%%abc-creator hum2abc beta
%%abcx-conversion-date 2019/02/17 07:19:41
%%abc-edited-by Jesse Rodin
%%abc-edited-by Chris Gage 10-02-2014
%%abcx-initial-encoding-date 2015/03/07/
%%humdrum-veritas 2686431782
%%humdrum-veritas-data 3354000925
%%linebreak <none>
%%barnumbers 0
L: 1/4
M: 2/1
Q: 1/2=120
V: 1 clef=treble
V: 2 clef=treble-8
V: 3 clef=treble-8
K: C
[V:1] c8- | 
[V:2] c8 | 
[V:3] c8 | 
[V:1] c8 | 
[V:2] e4f4 | 
[V:3] A8 | 
[V:1] B8 | 
[V:2] g8 | 
[V:3] G8 | 
[V:1] c4G4 | 
[V:2] c8- | 
[V:3] g3fe4- | 
[V:1] A4G4- | 
[V:2] c4B4 | 
[V:3] e2d2d4- | 
[V:1] G2^FEF4 | 
[V:2] A8 | 
[V:3] d2cBc4 | 
[V:1] G6A2 | 
[V:2] G8 | 
[V:3] d8 | 
[V:1] B2c2d4- | 
[V:2] g8 | 
[V:3] G6A2 | 
[V:1] d4c4 | 
[V:2] f4e4 | 
[V:3] _B4c4 | 
[V:1] d4e4- | 
[V:2] d4c4 | 
[V:3] _B4A4 | 
[V:1] e2d2c4- | 
[V:2] e8 | 
[V:3] c8 | 
[V:1] c4B4 | 
[V:2] d8 | 
[V:3] G8 | 
[V:1] c8 ||  
[V:2] c8 ||  
[V:3] g8 ||  
[V:1]  [K:C] [K:clef=treble][M:2/1]c6BA | 
[V:2]  [K:C] [K:clef=treble-8][M:2/1]c8 | 
[V:3]  [K:C] [K:clef=treble-8][M:2/1]g8 | 
[V:1] G4c4- | 
[V:2] e8 | 
[V:3] c8 | 
[V:1] c2B2c4 | 
[V:2] c4e4 | 
[V:3] e8 | 
[V:1] d4e4- | 
[V:2] f4g4- | 
[V:3] d4c4- | 
[V:1] e2d2c2B2 | 
[V:2] g4e4 | 
[V:3] c4c4 | 
[V:1] c4B4 | 
[V:2] a4g4- | 
[V:3] F4G4 | 
[V:1] A8 | 
[V:2] g4^f4 | 
[V:3] d8 | 
[V:1] G6A2 | 
[V:2] g4e4 | 
[V:3] G4g4 | 
[V:1] B4c2B2 | 
[V:2] d4c4 | 
[V:3] f4e4 | 
[V:1] A2G2G4- | 
[V:2] d4B4 | 
[V:3] f4d4- | 
[V:1] G4^F4 | 
[V:2] A8 | 
[V:3] d2c2c3B | 
[V:1] G8 ||  
[V:2] G8 ||  
[V:3] d8 ||  
[V:1]  [K:C] [K:clef=treble][M:2/1]G4A4 | 
[V:2]  [K:C] [K:clef=treble-8][M:2/1]z8 | 
[V:3]  [K:C] [K:clef=treble-8][M:2/1]g4f4 | 
[V:1] B4c4 | 
[V:2] G4A4 | 
[V:3] d4c4 | 
[V:1] G4c4 | 
[V:2] B4c4 | 
[V:3] d4e3d | 
[V:1] d4e4- | 
[V:2] G4c4- | 
[V:3] B4A4- | 
[V:1] e2d2c4 | 
[V:2] c4e4 | 
[V:3] A2B2c4- | 
[V:1] f8 | 
[V:2] d8 | 
[V:3] c4B4 | 
[V:1] e4e4- | 
[V:2] c8 | 
[V:3] c8 | 
[V:1] e2d2c4 | 
[V:2] e4f4 | 
[V:3] A8 | 
[V:1] B4e4- | 
[V:2] g8 | 
[V:3] G4c4- | 
[V:1] e4d4- | 
[V:2] e4f4- | 
[V:3] c4_B4- | 
[V:1] d4c4- | 
[V:2] f4e4 | 
[V:3] B4c4 | 
[V:1] c4B4 | 
[V:2] d8 | 
[V:3] G8 | 
[V:1] c8 |]  
[V:2] c8 |]  
[V:3] g8 |]  



